**kern	**silbe	**kern	**silbe	**harmony	**chordsym	**phrase	**timestamp	**leadinstrument
*ICvox	*	*ICvox	*	*M4/4	*M4/4	*	*	*
*E:	*	*E:	*	*E:	*E:	*	*	*
*M4/4	*	*M4/4	*	*	*	*	*	*
*clefG2	*	*clefF4	*	*	*	*	*	*
r;	.	r;	.	1r;	r	.	0	r
=1	=1	=1	=1	=1	=1	=1	=1	=1
*	*	*	*	*>A_chorus	*>A_chorus	*>A_chorus	*>A_chorus	*>A_chorus
4r	.	1r	.	1EM	E:maj (E G# B)	newline	0.557	voice
8f#q	_	.	.	.	.	.	.	.
4[g#	I	.	.	.	.	.	.	.
4g#]	_	.	.	.	.	.	.	.
8g#q	_	.	.	.	.	.	.	.
4e	been	.	.	.	.	.	.	.
=2	=2	=2	=2	=2	=2	=2	=2	=2
4.e	chea-	1r	.	1EM	E:maj (E G# B)	.	.	voice
8e	-ted	.	.	.	.	.	.	.
4f#	_	.	.	.	.	.	.	.
4r	.	.	.	.	.	.	.	.
=3	=3	=3	=3	=3	=3	=3	=3	=3
4r	.	1r	.	1EM	E:maj (E G# B)	.	.	voice
8f#q	_	.	.	.	.	.	.	.
4[g#	been	.	.	.	.	.	.	.
4g#]	_	.	.	.	.	.	.	.
8g#q	_	.	.	.	.	.	.	.
4e	_	.	.	.	.	.	.	.
=4	=4	=4	=4	=4	=4	=4	=4	=4
4.e	trea-	1r	.	1EM	E:maj (E G# B)	.	.	voice
8e	-ted	.	.	.	.	.	.	.
12c#	_	.	.	.	.	.	.	.
6B	_	.	.	.	.	.	.	.
4r	.	.	.	.	.	.	.	.
=5	=5	=5	=5	=5	=5	=5	=5	=5
4r	.	4r	.	1EM	E:maj (E G# B)	newline	8.329	voice
8f#q	_	8c#q	_	.	.	.	.	.
4[g#	When	4[B 4[e	When	.	.	.	.	.
4g#]	_	4B] 4e]	_	.	.	.	.	.
12g#	will	12B 12[e	will	.	.	.	.	.
6e	_	6c# 6e]	_	.	.	.	.	.
=6	=6	=6	=6	=6	=6	=6	=6	=6
2e	I	2A 2c#	I	2AM	A:maj (E A C#)	.	.	voice
4[f#	_	4[B 4[d#	_	2BM	B:maj (E B D# F#)	.	.	voice
6f#]	_	6B] 6d#]	_	.	.	.	.	.
12f#	be	12B 12d#	be	.	.	.	.	.
=7	=7	=7	=7	=7	=7	=7	=7	=7
6e	_	6G# 6B	_	1EM	E:maj (E G# B)	.	.	voice
12[e	loved?	12[G# 12[B	loved?	.	.	.	.	.
2.e]	_	2.G#] 2.B]	_	.	.	.	.	.
=8	=8	=8	=8	=8	=8	=8	=8	=8
1r	.	1r	.	2AM	A:maj (A C# E)	.	.	voice
.	.	.	.	2BM	B:maj (B D# F#)	.	.	voice
=9	=9	=9	=9	=9	=9	=9	=9	=9
4r	.	4r	.	1EM	E:maj (E G# B)	newline	15.65	voice
8f#q	_	8G#q 8c#q	_	.	.	.	.	.
4[g#	I've	4[B 4[e	I've	.	.	.	.	.
4g#]	_	4B] 4e]	_	.	.	.	.	.
8g#q	_	.	.	.	.	.	.	.
4e	been	4r	.	.	.	.	.	.
=10	=10	=10	=10	=10	=10	=10	=10	=10
4.e	put	4.A 4.c#	put	2AM	A:maj (A C# E)	.	.	voice
8[f#	down,	8[B 8[d#	down,	.	.	.	.	.
4f#]	_	4B] 4d#]	_	2BM	B:maj (B D# F#)	.	.	voice
4r	.	4r	.	.	.	.	.	.
=11	=11	=11	=11	=11	=11	=11	=11	=11
4r	.	4r	.	1EM	E:maj (E G# B)	.	.	voice
8g#q	_	8G#q 8c#q	_	.	.	.	.	.
4[b	I've	4[B 4[e	I've	.	.	.	.	.
4b]	_	4B] 4e]	_	.	.	.	.	.
8g#q	_	.	.	.	.	.	.	.
4e	been	4r	.	.	.	.	.	.
=12	=12	=12	=12	=12	=12	=12	=12	=12
4.e	pushed	4.A 4.c#	pushed	2AM	A:maj (A C# E)	.	.	voice
8[f#	'round,	8[B 8[d#	'round,	.	.	.	.	.
4f#]	_	4B] 4d#]	_	2BM	B:maj (B D# F#)	.	.	voice
4r	.	4r	.	.	.	.	.	.
=13	=13	=13	=13	=13	=13	=13	=13	=13
4r	.	4r	.	1EM	E:maj (E G# B)	newline	22.968	voice
8f#q	_	8c#q	_	.	.	.	.	.
4[g#	When	4[B 4[e	When	.	.	.	.	.
4g#]	_	4B] 4e]	_	.	.	.	.	.
12g#	will	12B 12[e	will	.	.	.	.	.
6e	_	6c# 6e]	_	.	.	.	.	.
=14	=14	=14	=14	=14	=14	=14	=14	=14
2e	I	2A 2c#	I	2AM	A:maj (A C# E)	.	.	voice
4[f#	_	4[B 4[d#	_	2BM	B:maj (B D# F#)	.	.	voice
6f#]	_	6B] 6d#]	_	.	.	.	.	.
12f#	be	12B 12d#	be	.	.	.	.	.
=15	=15	=15	=15	=15	=15	=15	=15	=15
6e	_	6G# 6B	_	1EM	E:maj (E G# B)	.	.	voice
12[e	loved	12[G# 12[B	loved?	.	.	.	.	.
2.e_	_	2.G#] 2.B]	_	.	.	.	.	.
=16	=16	=16	=16	=16	=16	=16	=16	=16
4e]	_	1r	.	1EM	E:maj (E G# B)	.	.	voice
4r	.	.	.	.	.	.	.	.
2r	.	.	.	.	.	.	.	.
=17	=17	=17	=17	=17	=17	=17	=17	=17
*	*	*	*	*>B_verse	*>B_verse	*>B_verse	*>B_verse	*>B_verse
4r	.	1r	.	1AM	A:maj(9) (A C# E B)	newline	30.163	voice
8e	When	.	.	.	.	.	.	.
8c#	I	.	.	.	.	.	.	.
4.e	find	.	.	.	.	.	.	.
8e	a	.	.	.	.	.	.	.
=18	=18	=18	=18	=18	=18	=18	=18	=18
8f#q	_	.	.	.	.	.	.	.
4g#	_	1r	.	1BM	B:maj (B D# F#)	.	.	voice
8f#	man,	.	.	.	.	.	.	.
8e	_	.	.	.	.	.	.	.
2r	.	.	.	.	.	.	.	.
=19	=19	=19	=19	=19	=19	=19	=19	=19
4r	.	1r	.	1AM	A:maj(9) (A C# E B)	.	.	voice
8e	that	.	.	.	.	.	.	.
8e	I	.	.	.	.	.	.	.
8e	want	.	.	.	.	.	.	.
8B	for	.	.	.	.	.	.	.
8c#	_	.	.	.	.	.	.	.
8B	_	.	.	.	.	.	.	.
=20	=20	=20	=20	=20	=20	=20	=20	=20
4B	mine,	1r	.	1EM	E:maj (E G# B)	.	.	voice
4r	.	.	.	.	.	.	.	.
4r	.	.	.	.	.	.	.	.
8r	.	.	.	.	.	.	.	.
8B	he	.	.	.	.	.	.	.
=21	=21	=21	=21	=21	=21	=21	=21	=21
4e	al-	1r	.	1AM	A:maj(9) (A C# E B)	newline	37.422	voice
8e	-ways	.	.	.	.	.	.	.
8e	breaks	.	.	.	.	.	.	.
4r	.	.	.	.	.	.	.	.
8r	.	.	.	.	.	.	.	.
8e	my	.	.	.	.	.	.	.
=22	=22	=22	=22	=22	=22	=22	=22	=22
4f#	heart	2r	.	1BM	B:maj (B D# F#)	.	.	voice
8f#	in	.	.	.	.	.	.	.
8f#	two,	.	.	.	.	.	.	.
12e	_	4r	.	.	.	.	.	.
6d#	_	.	.	.	.	.	.	.
8r	.	8r	.	.	.	.	.	.
8B	it	8E	it	.	.	.	.	.
=23	=23	=23	=23	=23	=23	=23	=23	=23
8g#	hap-	8A 8c#	hap-	1D-mm	D-:min7 (D- F- A- C-)	.	.	voice
4.b	-pens	4.c# 4.e	-pens	.	.	.	.	.
12g#	e	12c# 12e	e	.	.	.	.	.
12f#	_	12B 12d#	_	.	.	.	.	.
12[e	_	12[A 12[c#	_	.	.	.	.	.
6e]	_	6A] 6c#]	_	.	.	.	.	.
12g#	v'ry	12A 12c#	v'ry	.	.	.	.	.
=24	=24	=24	=24	=24	=24	=24	=24	=24
8f#	_	8B 8d#	_	1BM	B:maj (B D# F#)	.	.	voice
8[f#	time!	8[B 8[d#	time!	.	.	.	.	.
2.f#_	_	2.B_ 2.d#_	_	.	.	.	.	.
=25	=25	=25	=25	=25	=25	=25	=25	=25
2.f#]	_	2.B] 2.d#]	_	1BM	B:maj (B D# F#)	.	.	voice
4r	.	4r	.	.	.	.	.	.
=26	=26	=26	=26	=26	=26	=26	=26	=26
*	*	*	*	*>A_chorus	*>A_chorus	*>A_chorus	*>A_chorus	*>A_chorus
4r	.	4r	.	1EM	E:maj (E G# B)	newline	46.517	voice
8f#q	_	8G#q 8c#q	_	.	.	.	.	.
4[g#	I've	4[B 4[e	I've	.	.	.	.	.
4g#]	_	4B] 4e]	_	.	.	.	.	.
8g#q	_	.	.	.	.	.	.	.
4e	been	4r	.	.	.	.	.	.
=27	=27	=27	=27	=27	=27	=27	=27	=27
4.e	made,	4.A 4.c#	made	2AM	A:maj (A C# E)	.	.	voice
8eq	_	.	.	.	.	.	.	.
8[f#	_	8[B 8[d#	blue,	.	.	.	.	.
4f#]	_	4B] 4d#]	_	2BM	B:maj (B D# F#)	.	.	voice
4r	.	4r	.	.	.	.	.	.
=28	=28	=28	=28	=28	=28	=28	=28	=28
4r	.	4r	.	1EM	E:maj (E G# B)	.	.	voice
8g#q	_	8G#q 8c#q	_	.	.	.	.	.
4[b	I've	4[B 4[e	I've	.	.	.	.	.
4b]	_	4B] 4e]	_	.	.	.	.	.
8g#q	_	.	.	.	.	.	.	.
4e	been	4r	.	.	.	.	.	.
=29	=29	=29	=29	=29	=29	=29	=29	=29
4.e	lied,	4.A 4.c#	lied	2AM	A:maj (A C# E)	.	.	voice
8eq	_	.	.	.	.	.	.	.
8[f#	_	8[B 8[d#	to,	.	.	.	.	.
4f#]	_	4B] 4d#]	_	2BM	B:maj (B D# F#)	.	.	voice
4r	.	4r	.	.	.	.	.	.
=30	=30	=30	=30	=30	=30	=30	=30	=30
4r	.	4r	.	1EM	E:maj (E G# B)	newline	53.689	voice
8f#q	_	8c#q	_	.	.	.	.	.
4[g#	When	4[B 4[e	When	.	.	.	.	.
4g#]	_	4B] 4e]	_	.	.	.	.	.
12g#	will	12B 12[e	will	.	.	.	.	.
6e	_	6c# 6e]	_	.	.	.	.	.
=31	=31	=31	=31	=31	=31	=31	=31	=31
2e	I	2A 2c#	I	2AM	A:maj (A C# E)	.	.	voice
4[f#	_	4[B 4[d#	_	2BM	B:maj (B D# F#)	.	.	voice
6f#]	_	6B] 6d#]	_	.	.	.	.	.
8f#q	_	8Bq 8d#q	_	.	.	.	.	.
12[e	_	12[G# 12[B	_	.	.	.	.	.
=32	=32	=32	=32	=32	=32	=32	=32	=32
6e]	_	6G#] 6B]	_	1EM	E:maj (E G# B)	.	.	voice
12[e	loved?	12[G# 12[B	loved?	.	.	.	.	.
2.e]	_	2.G#] 2.B]	_	.	.	.	.	.
=33	=33	=33	=33	=33	=33	=33	=33	=33
1r	.	1r	.	1EM	E:maj (E G# B)	.	.	voice
=34	=34	=34	=34	=34	=34	=34	=34	=34
1r	.	1r	.	1EM	E:maj (E G# B)	newline	60.822	guitar
=35	=35	=35	=35	=35	=35	=35	=35	=35
1r	.	1r	.	2AM	A:maj (A C# E)	.	.	guitar
.	.	.	.	2BM	B:maj (B D# F#)	.	.	guitar
=36	=36	=36	=36	=36	=36	=36	=36	=36
1r	.	1r	.	1EM	E:maj (E G# B)	.	.	guitar
=37	=37	=37	=37	=37	=37	=37	=37	=37
1r	.	1r	.	2AM	A:maj (A C# E)	.	.	guitar
.	.	.	.	2BM	B:maj (B D# F#)	.	.	guitar
=38	=38	=38	=38	=38	=38	=38	=38	=38
1r	.	1r	.	1EM	E:maj (E G# B)	newline	68.093	guitar
=39	=39	=39	=39	=39	=39	=39	=39	=39
1r	.	1r	.	2AM	A:maj (A C# E)	.	.	guitar
.	.	.	.	2BM	B:maj (B D# F#)	.	.	guitar
=40	=40	=40	=40	=40	=40	=40	=40	=40
1r	.	1r	.	1EM	E:maj (E G# B)	.	.	guitar
=41	=41	=41	=41	=41	=41	=41	=41	=41
1r	.	1r	.	1EM	E:maj (E G# B)	.	.	guitar
=42	=42	=42	=42	=42	=42	=42	=42	=42
*	*	*	*	*>B_verse	*>B_verse	*>B_verse	*>B_verse	*>B_verse
4r	.	1r	.	1AM	A:maj(9) (A C# E B)	newline	75.253	voice
8e	When	.	.	.	.	.	.	.
8c#	I	.	.	.	.	.	.	.
4.e	find	.	.	.	.	.	.	.
8e	a	.	.	.	.	.	.	.
=43	=43	=43	=43	=43	=43	=43	=43	=43
8aq	_	.	.	.	.	.	.	.
4b	_	1r	.	1BM	B:maj (B D# F#)	.	.	voice
12g#	man,	.	.	.	.	.	.	.
12f#	_	.	.	.	.	.	.	.
12[e	_	.	.	.	.	.	.	.
8e]	_	.	.	.	.	.	.	.
8r	.	.	.	.	.	.	.	.
4r	.	.	.	.	.	.	.	.
=44	=44	=44	=44	=44	=44	=44	=44	=44
*clefF4	*	*	*	*	*	*	*	*
4r	.	1r	.	1AM	A:maj(9) (A C# E B)	.	.	voice
8e	that	.	.	.	.	.	.	.
8e	I	.	.	.	.	.	.	.
8e	want	.	.	.	.	.	.	.
8B	for	.	.	.	.	.	.	.
8c#	_	.	.	.	.	.	.	.
8B	_	.	.	.	.	.	.	.
=45	=45	=45	=45	=45	=45	=45	=45	=45
12B	mine,	1r	.	1EM	E:maj (E G# B)	.	.	voice
12A	_	.	.	.	.	.	.	.
12[G#	_	.	.	.	.	.	.	.
8G#]	_	.	.	.	.	.	.	.
8r	.	.	.	.	.	.	.	.
4r	.	.	.	.	.	.	.	.
8r	.	.	.	.	.	.	.	.
8B	he	.	.	.	.	.	.	.
=46	=46	=46	=46	=46	=46	=46	=46	=46
*clefG2	*	*	*	*	*	*	*	*
4e	al-	1r	.	1AM	A:maj(9) (A C# E B)	newline	82.501	voice
8e	-ways	.	.	.	.	.	.	.
8[e	breaks	.	.	.	.	.	.	.
8e]	_	.	.	.	.	.	.	.
8r	.	.	.	.	.	.	.	.
8r	.	.	.	.	.	.	.	.
8e	my	.	.	.	.	.	.	.
=47	=47	=47	=47	=47	=47	=47	=47	=47
8f#q	_	.	.	.	.	.	.	.
8g#	_	2r	.	1BM	B:maj (B D# F#)	.	.	voice
8f#	_	.	.	.	.	.	.	.
8f#	in	.	.	.	.	.	.	.
8f#	two,	.	.	.	.	.	.	.
12e	_	4r	.	.	.	.	.	.
6d#	_	.	.	.	.	.	.	.
8r	.	8r	.	.	.	.	.	.
8B	it	8E	it	.	.	.	.	.
=48	=48	=48	=48	=48	=48	=48	=48	=48
8g#	hap-	8A 8c#	hap-	1D-mm	D-:min7 (D- F- A- C-)	.	.	voice
8g#q	_	8Aq 8c#q	_	.	.	.	.	.
4.b	_	4.c# 4.e	_	.	.	.	.	.
12g#	e	12c# 12e	e	.	.	.	.	.
12f#	_	12B 12d#	_	.	.	.	.	.
12[e	_	12[A 12[c#	_	.	.	.	.	.
6e]	_	6A] 6c#]	_	.	.	.	.	.
12g#	v'ry	12A 12c#	v'ry	.	.	.	.	.
=49	=49	=49	=49	=49	=49	=49	=49	=49
8f#	_	8B 8d#	_	1BM	B:maj (B D# F#)	.	.	voice
8[f#	time,	8[B 8[d#	time!	.	.	.	.	.
2f#_	_	2B_ 2d#_	_	.	.	.	.	.
12f#]	_	12B] 12d#]	_	.	.	.	.	.
12g#	_	12c# 12e	_	.	.	.	.	.
12f#	_	12B 12d#	_	.	.	.	.	.
=50	=50	=50	=50	=50	=50	=50	=50	=50
12g#	_	12c# 12e	_	1BM	B:maj (B D# F#)	.	.	voice
6[b	_	6[d# 6[f#	_	.	.	.	.	.
4b_	_	4d#_ 4f#_	_	.	.	.	.	.
8b]	_	4d#] 4f#]	_	.	.	.	.	.
8[cc#	oh!	.	.	.	.	.	.	.
8cc#]	_	4r	.	.	.	.	.	.
8b	_	.	.	.	.	.	.	.
=51	=51	=51	=51	=51	=51	=51	=51	=51
*	*	*	*	*>A_chorus	*>A_chorus	*>A_chorus	*>A_chorus	*>A_chorus
4r	.	4r	.	1EM	E:maj (E G# B)	newline	91.491	voice
8f#q	_	8G#q 8c#q	_	.	.	.	.	.
4[g# 4[b	I've	4[B 4[e	I've	.	.	.	.	.
4g#] 4b]	_	4B] 4e]	_	.	.	.	.	.
8g#q 8b~q	_	8B~q 8e~q	_	.	.	.	.	.
4e 4a~	been	4A~ 4c#~	been	.	.	.	.	.
=52	=52	=52	=52	=52	=52	=52	=52	=52
4.e 4.a	chea-	4.A 4.c#	chea-	2AM	A:maj (A C# E)	.	.	voice
8eq 8aq	_	.	.	.	.	.	.	.
8[f# 8[b	-ted	8[B 8[d#	-ted	.	.	.	.	.
4f#] 4b]	_	4B] 4d#]	_	2BM	B:maj (B D# F#)	.	.	voice
4r	.	4r	.	.	.	.	.	.
=53	=53	=53	=53	=53	=53	=53	=53	=53
4r	.	4r	.	1EM	E:maj (E G# B)	.	.	voice
8f#q 8aq	_	8G#q 8c#q	_	.	.	.	.	.
4[g# 4[b	Been	4[B 4[e	Been	.	.	.	.	.
4g#] 4b]	_	4B] 4e]	_	.	.	.	.	.
8g#q 8bq	_	.	.	.	.	.	.	.
4e 4a	mis-	4A 4c#~	mis-	.	.	.	.	.
=54	=54	=54	=54	=54	=54	=54	=54	=54
4.e 4.a	-trea-	4.A 4.c#	-trea-	2AM	A:maj (A C# E)	.	.	voice
8eq 8aq	_	.	.	.	.	.	.	.
8[f# 8[b	-ted,	8[B 8[d#	-ted	.	.	.	.	.
4f#] 4b]	_	4B] 4d#]	_	2BM	B:maj (B D# F#)	.	.	voice
4r	.	4r	.	.	.	.	.	.
=55	=55	=55	=55	=55	=55	=55	=55	=55
4r	.	4r	.	1EM	E:maj (E G# B)	newline	98.638	voice
8f#q 8aq	_	8c#q	_	.	.	.	.	.
4[g# 4[b	When	4[B 4[e	When	.	.	.	.	.
4g#] 4b]	_	4B] 4e]	_	.	.	.	.	.
12g# 12b	will	12B 12[e	will	.	.	.	.	.
6e 6a	_	6c# 6e]	_	.	.	.	.	.
=56	=56	=56	=56	=56	=56	=56	=56	=56
2e 2a	I	2A 2c#	I	2AM	A:maj (A C# E)	.	.	voice
4[f# 4[b	_	4[B 4[d#	_	2BM	B:maj (B D# F#)	.	.	voice
6f#] 6b]	_	6B] 6d#]	_	.	.	.	.	.
[8f#q 8bq	_	8Bq 8d#q	_	.	.	.	.	.
12[e 12[g#	be	12[G# 12[B	be	.	.	.	.	.
=57	=57	=57	=57	=57	=57	=57	=57	=57
6e] 6g#]	_	6G#] 6B]	_	1EM	E:maj (E G# B)	.	.	voice
12[e 12[g#	loved?	12[G# 12[B	loved?	.	.	.	.	.
2e_ 2g#_	_	2G#_ 2B_	_	.	.	.	.	.
8e] 8g#]	_	8G#] 8B]	_	.	.	.	.	.
8r	.	8r	.	.	.	.	.	.
=58	=58	=58	=58	=58	=58	=58	=58	=58
1r	.	1r	.	2AM	A:maj (A C# E)	.	.	voice
.	.	.	.	2BM	B:maj (B D# F#)	.	.	voice
=59	=59	=59	=59	=59	=59	=59	=59	=59
4r	.	4r	.	1EM	E:maj (E G# B)	newline	105.796	voice
8f#q 8aq	_	8c#q	_	.	.	.	.	.
4[g# 4[b	When	4[B 4[e	When	.	.	.	.	.
4g#] 4b]	_	4B] 4e]	_	.	.	.	.	.
12g# 12b	will	12B 12[e	will	.	.	.	.	.
6e 6a	_	6c# 6e]	_	.	.	.	.	.
=60	=60	=60	=60	=60	=60	=60	=60	=60
2e 2a	I	2A 2c#	I	2AM	A:maj (A C# E)	.	.	voice
4[f# 4[b	_	4[B 4[d#	_	2BM	B:maj (B D# F#)	.	.	voice
6f#] 6b]	_	6B] 6d#]	_	.	.	.	.	.
[8f#q 8bq	_	8Bq 8d#q	_	.	.	.	.	.
12[e 12[g#	be	12[G# 12[B	be	.	.	.	.	.
=61	=61	=61	=61	=61	=61	=61	=61	=61
6e] 6g#]	_	6G#] 6B]	_	1EM	E:maj (E G# B)	.	.	voice
12[e 12[g#	loved?	12[G# 12[B	loved?	.	.	.	.	.
2e_ 2g#_	_	2G#_ 2B_	_	.	.	.	.	.
8e] 8g#]	_	8G#] 8B]	_	.	.	.	.	.
8r	.	8r	.	.	.	.	.	.
=62	=62	=62	=62	=62	=62	=62	=62	=62
2r	.	1r	.	2AM	A:maj (A C# E)	.	.	voice
4e	Tell	.	.	2BM	B:maj (B D# F#)	.	.	voice
4e	me,	.	.	.	.	.	.	.
=63	=63	=63	=63	=63	=63	=63	=63	=63
4r	.	4r	.	1EM	E:maj (E G# B)	newline	112.879	voice
8g#q	_	8c#q	_	.	.	.	.	.
4[b	When	4[B 4[e	When	.	.	.	.	.
4b]	_	4B] 4e]	_	.	.	.	.	.
12g#	will	12B	will	.	.	.	.	.
12f#	_	6c#	_	.	.	.	.	.
12e	_	.	.	.	.	.	.	.
=64	=64	=64	=64	=64	=64	=64	=64	=64
2e	I	2A 2c#	I	2AM	A:maj (E A C#)	.	.	voice
4[f#	be	4[B 4[d#	be	2BM	B:maj (E B D# F#)	.	.	voice
16f#]	_	16B] 16d#]	_	.	.	.	.	.
16g#	_	16c# 16e	_	.	.	.	.	.
16f#	_	16B 16d#	_	.	.	.	.	.
16e	_	16A 16c#	_	.	.	.	.	.
=65	=65	=65	=65	=65	=65	=65	=65	=65
4r	.	4r	.	1AM	A:maj (E A C#)	.	.	voice
2.[e	loved?	4A 4[c#	loved?	.	.	.	.	.
.	.	16.A 16.c#]	_	.	.	.	.	.
.	.	32A 32d	_	.	.	.	.	.
.	.	16.A 16.c#	_	.	.	.	.	.
.	.	32A 32d	_	.	.	.	.	.
.	.	8[A 8c#	_	.	.	.	.	.
.	.	8A] 8B	_	.	.	.	.	.
=66	=66	=66	=66	=66	=66	=66	=66	=66
4e_	_	8G 8[B	_	1r;	r	.	.	r
.	.	8[G# 8B_	_	.	.	.	.	.
2.e]	_	2.G#] 2.B]	_	.	.	.	.	.
=67	=67	=67	=67	=67	=67	=67	=67	=67
1r	.	1r	.	1EM	E:maj (E G# B)	.	.	r
r;	.	r;	.	1r;	r	.	124.633	r
r;	.	r;	.	1r;	r	.	124.918	r
*-	*-	*-	*-	*-	*-	*-	*-	*-
!!!BillboardChartDate: 1975/07/26, 1975/07/19
!!!BillboardPeak: 2, 2
!!!BillboardWeeksOnChart: 19, 19
!!!COC: Linda Ronstadt
!!!ENC: Nathaniel Condit-Schultz
!!!EST: Awating manual error checking and editing.
!!!OTL: When Will I Be Loved
!!!RDF**chordsym: original McGill chord annotation + (implied pitch class set, with bass pitch in first position)
!!!RDF**harmony: **recip + pitch class of root + harmonic quality
!!!RDF**leadinstrument: original McGill primary instrumentation annotation
!!!RDF**phrase: newline = linebreak in original McGill transcription
!!!RDF**timestamp: McGill audio timestamp in seconds
!!!RDT: 2017/01/12/
!!!SampleActualRank: 73, 23
!!!SampleID#: 324, 839
!!!SampleTargetRank: 72, 23
